X: 17051
T: Heather Breeze, The
R: reel
M: 4/4
K: Gmajor
|:GGBG dGBG|DFAF dFAF|GGBG dGBG|BdcA BGAF:|
GGBG dGDE|=FFAF =cFAF|GGBG dGBG|BdcA BGBd||
|:gagf ggag|fdde fgaf|fggf gbag|fdcA BGBd|
gagf ggag|fdde fgaf|fggf gbag|1 fdcA BGBd:|2 fdcA BGAF||
P:2nd turn
GGBG dGDE|=FFAF =cFAF|GGBG dGBG|BdcA BGAF|2 BdcA BGBd||
|:gagf ggag|fdde fgaf|fggf gbag|fdcA BGBd|
gagf ggag|fdde fgaf|fggf gbag|1 fdcA BGBd:|2 fdcA BGAF||
P:3rd turn
|:GGBG dGDE|=FFAF =cFAF|GGBG dGBG|BdcA BGAF:|
GGBG dGBG|DFAF dFAF|GGBG dGBG|BdcA BGBd|
|:gagf ggag|fdde fgaf|fggf gbag|fdcA BGBd||
|:gagf ggag|fdde fgaf|fggf gbag|fdcA BGBd|
gagf ggag|fdde fgaf|fggf gbag|1 fdcA BGBd:|2 fdcA BGAF||

